svg/Outline/print.svg

<svg viewBox="0 0 24 24" xmlns="http://www.w3.org/2000/svg" width="24" height="24"><path d="M18.62 8.02A1 1 0 1 1 19 9.98a1 1 0 0 1-.4-1.96"/><path fill-rule="evenodd" d="M15.71 1q.81-.01 1.39.04.59.03 1.13.28l.2.11q.68.43 1.07 1.16l.06.14q.2.48.22.99.04.57.03 1.39v.23a5 5 0 0 1 2.95 3.12C23 9.2 23 10.14 23 12s0 2.8-.24 3.54l-.1.29a5 5 0 0 1-2.85 2.83v.24q0 .82-.03 1.39-.03.59-.28 1.13a3 3 0 0 1-1.27 1.27q-.54.25-1.13.28-.57.04-1.39.03H8.3q-.82 0-1.39-.03-.59-.03-1.13-.28a3 3 0 0 1-1.27-1.27 3 3 0 0 1-.28-1.13q-.04-.57-.03-1.39v-.24a5 5 0 0 1-2.85-2.83l-.1-.29C1 14.8 1 13.86 1 12c0-1.63 0-2.54.16-3.25l.08-.3a5 5 0 0 1 2.93-3.1l.02-.01V5.1q0-.82.03-1.39c.03-.39.1-.77.29-1.13l.1-.2a3 3 0 0 1 1.16-1.07l.14-.06q.48-.2 1-.22Q7.46 1 8.28 1zM8.3 12.7c-.58 0-.95 0-1.24.03-.28.02-.4.06-.46.1q-.32.16-.48.47a1 1 0 0 0-.1.46C6 14.06 6 14.43 6 15v3.9c0 .58 0 .95.02 1.24.02.28.06.4.1.46q.16.31.48.48c.06.04.18.08.46.1s.66.02 1.24.02h7.42c.58 0 .95 0 1.24-.02.28-.02.4-.06.46-.1q.32-.16.48-.48c.04-.06.08-.18.1-.46s.02-.66.02-1.24V15c0-.57 0-.95-.02-1.24a1 1 0 0 0-.1-.46 1 1 0 0 0-.48-.48 1 1 0 0 0-.46-.1c-.29-.02-.66-.02-1.24-.02zM8 6.8c-1.74 0-2.4.02-2.82.11l-.16.05a3.2 3.2 0 0 0-1.99 1.87l-.06.18c-.14.41-.16.99-.16 2.99s.02 2.58.16 2.99a3.2 3.2 0 0 0 1.23 1.65V15q0-.81.03-1.38.03-.6.28-1.13a3 3 0 0 1 1.27-1.27q.54-.26 1.13-.29.57-.04 1.39-.03h7.42q.82 0 1.39.03.59.02 1.13.29.83.43 1.27 1.27.25.54.28 1.13.04.56.03 1.38v1.64a3.2 3.2 0 0 0 1.24-1.65l.04-.17c.1-.41.11-1.07.11-2.82s-.01-2.41-.1-2.82L21.04 9a3.2 3.2 0 0 0-1.88-1.99L19 6.96c-.42-.14-1-.16-3-.16zm.3-4c-.57 0-.95 0-1.24.03q-.3.03-.4.07l-.06.03q-.23.11-.39.33l-.1.15c-.02.06-.06.18-.09.46C6 4.14 6 4.49 6 5.02L6.76 5h10.48l.77.02c0-.53 0-.88-.02-1.15q-.04-.3-.07-.4l-.03-.06a1 1 0 0 0-.33-.4l-.15-.08a1 1 0 0 0-.46-.1c-.29-.02-.66-.02-1.24-.02z" clip-rule="evenodd"/></svg>

<svg viewBox="0 0 24 24" xmlns="http://www.w3.org/2000/svg" width="24" height="24"><path d="M18.62 8.02A1 1 0 1 1 19 9.98a1 1 0 0 1-.4-1.96"/><path fill-rule="evenodd" d="M15.71 1Q16.52 .99 17.1 1.04Q17.69 1.07 18.23 1.32L18.43 1.43Q19.11 1.86 19.5 2.59L19.56 2.73Q19.76 3.21 19.78 3.72Q19.82 4.29 19.81 5.11L19.81 5.34A5 5 0 0 1 22.76 8.46C23 9.2 23 10.14 23 12C23 13.86 23 14.8 22.76 15.54L22.66 15.83A5 5 0 0 1 19.81 18.66L19.81 18.9Q19.81 19.72 19.78 20.29Q19.75 20.88 19.5 21.42A3 3 0 0 1 18.23 22.69Q17.69 22.94 17.1 22.97Q16.53 23.01 15.71 23L8.3 23Q7.48 23 6.91 22.97Q6.32 22.94 5.78 22.69A3 3 0 0 1 4.51 21.42A3 3 0 0 1 4.23 20.29Q4.19 19.72 4.2 18.9L4.2 18.66A5 5 0 0 1 1.35 15.83L1.25 15.54C1 14.8 1 13.86 1 12C1 10.37 1 9.46 1.16 8.75L1.24 8.45A5 5 0 0 1 4.17 5.35L4.19 5.1Q4.19 4.28 4.22 3.71C4.25 3.32 4.32 2.94 4.51 2.58L4.61 2.38A3 3 0 0 1 5.77 1.31L5.91 1.25Q6.39 1.05 6.91 1.03Q7.46 1 8.28 1ZM8.3 12.7c-.58 0-.95 0-1.24.03-.28.02-.4.06-.46.1q-.32.16-.48.47a1 1 0 0 0-.1.46C6 14.06 6 14.43 6 15v3.9c0 .58 0 .95.02 1.24.02.28.06.4.1.46q.16.31.48.48c.06.04.18.08.46.1s.66.02 1.24.02h7.42c.58 0 .95 0 1.24-.02.28-.02.4-.06.46-.1q.32-.16.48-.48c.04-.06.08-.18.1-.46s.02-.66.02-1.24V15c0-.57 0-.95-.02-1.24a1 1 0 0 0-.1-.46 1 1 0 0 0-.48-.48 1 1 0 0 0-.46-.1c-.29-.02-.66-.02-1.24-.02zM8 6.8c-1.74 0-2.4.02-2.82.11l-.16.05a3.2 3.2 0 0 0-1.99 1.87l-.06.18c-.14.41-.16.99-.16 2.99s.02 2.58.16 2.99a3.2 3.2 0 0 0 1.23 1.65V15q0-.81.03-1.38.03-.6.28-1.13a3 3 0 0 1 1.27-1.27q.54-.26 1.13-.29.57-.04 1.39-.03h7.42q.82 0 1.39.03.59.02 1.13.29.83.43 1.27 1.27.25.54.28 1.13.04.56.03 1.38v1.64a3.2 3.2 0 0 0 1.24-1.65l.04-.17c.1-.41.11-1.07.11-2.82s-.01-2.41-.1-2.82L21.04 9a3.2 3.2 0 0 0-1.88-1.99L19 6.96c-.42-.14-1-.16-3-.16zM8.3 2.8C7.73 2.8 7.35 2.8 7.06 2.83Q6.76 2.86 6.66 2.9L6.6 2.93Q6.37 3.04 6.21 3.26L6.11 3.41C6.09 3.47 6.05 3.59 6.02 3.87C6 4.14 6 4.49 6 5.02L18.01 5.02C18.01 4.49 18.01 4.14 17.99 3.87Q17.95 3.57 17.92 3.47L17.89 3.41A1 1 0 0 0 17.56 3.01L17.41 2.93A1 1 0 0 0 16.95 2.83C16.66 2.81 16.29 2.81 15.71 2.81Z" clip-rule="evenodd"/></svg>
